app/dist/common/images/rhi-magnesita-nv.svg

<svg fill="none" height="18" viewBox="0 0 18 18" width="18" xmlns="http://www.w3.org/2000/svg"><path d="m0 0h18v18h-18z" fill="#f0f3fa"/><g clip-rule="evenodd" fill="#3c4d5f" fill-rule="evenodd"><path d="m9.43865 10.4901c.05489-.017.21073-.1471.26739-.1923.09292-.0741.17825-.1374.27287-.2038.16859.1497 1.79429 1.4184 1.90709 1.4223.1164.0041.6968-.4713.8324-.5794l.8105-.6224c.0521-.0386.0847-.0631.1368-.1015.1996-.1475.0777-.1597.403.0761l.275.2199c-.0489.0173-.2441.1771-.3013.2227-.1468.1125-2.112 1.626-2.1299 1.626-.0981 0-2.16991-1.6333-2.47385-1.8676zm.93835-.71685c.0647-.01998.1321-.09057.1856-.1311l.2698-.20893c.1003-.07919.1345.01456.2888.12606.1466.11219.6688.54892.7824.53902.0921-.008.1942-.11785.4972-.33744.6289-.45583.3906-.43319.7487-.17626l.2559.22639c-.056.01731-.6792.51251-.7536.56591l-.379.2895c-.2334.1686-.3007.2614-.3776.2607-.1072-.0008-1.5043-1.12632-1.5182-1.15385zm.8815-.67912c.1016-.03139.5489-.43784.6275-.44673.0599-.00678.2573.16596.3169.21239l.321.23434c-.051.10099-.5912.47324-.6371.47035-.0642-.00403-.1288-.07683-.3111-.21205-.0651-.04829-.2833-.19691-.3172-.2583zm-5.13256 3.26357c-.06953 0-.2979-.1942-.36684-.249-.55556-.4421-1.2132-.9311-1.7935-1.3743l-.53858-.4468c-.07899-.0675-.08788-.0977-.13039-.2043-.19212.0594-.3602.2624-.27296.494.06096.1619.6937.6283.84983.7509.18424.1418 2.11425 1.6709 2.23822 1.6709.10766 0 .94179-.674 1.0955-.7914l1.79346-1.3661c.02351-.0032.13515.0882.17056.1165.7755.595 1.55136 1.2125 2.33336 1.7899.2188.1615.3015.2472.3824.2518.0856.0049.1692-.081.4101-.2639.7301-.5542 1.4598-1.0923 2.1808-1.6716l.3967-.3037c.0813-.0616.1253-.1577.1254-.2563.0001-.0949-.0404-.1921-.1272-.2634-.0667-.0548-.128-.1011-.1977-.1528-.5254-.38953-1.0465-.80174-1.5675-1.20255-.1312-.10501-1.1192-.88555-1.2093-.88555-.0969 0-.6041.40625-.7367.51278l-2.86641 2.19562c-.24437.1918-.4806.3591-.72179.5515z"/><path d="m5.48814 8.87317c.05883-.01823.24116-.16878.30464-.21868.1843-.14487.25638-.21423.32965-.21022.13985.00764.45153.37764.6169.4289-.01885.09383-.57763.48546-.63256.48222-.07441-.0044-.47127-.33736-.59016-.4256-.04489-.04797-.00596.00027-.02847-.05662zm-.35544-.26449c-.08986 0-.4203-.3407-.54028-.37786.00134-.00241 1.38544-1.11457 1.50076-1.14476.00731-.00191.01427-.00277.021-.00273.01047.00008.02037.00235.03013.00629.01604.00648.0317.0175.04882.0307l1.23487.93224c.0476.03829.14653.12406.19286.14049-.01297.06448-.0133.04874-.10935.1192l-.40251.29643c-.05546 0-.86656-.69201-.96683-.69201-.16294 0-.36275.19569-.54101.33207zm-.93839-.69902-.52607-.39674c.05142-.09322 2.43494-1.87031 2.44549-1.87031.01001 0 2.38919 1.75526 2.44551 1.85739-.17895.12581-.34815.29159-.52606.41667-.54477-.42687-1.09155-.84794-1.63948-1.26692-.14219-.10513-.20885-.16097-.27952-.16038-.06568.00055-.13483.04984-.27129.15359zm-1.19431-.41563c0 .21388.20524.32022.31728.40968.30352.24233 2.62342 2.07854 2.78017 2.09609.30241.0339 5.51315-4.35719 5.80305-4.35719.0469 0 .4478.33029.5403.39674.3253.23375.7298.57267 1.0619.8182l1.0718.84993c.0551.04304.1204.10485.1269.20919.1529-.01689.2986-.15645.2986-.41561 0-.17668-.2243-.30542-.3225-.38382-.2581-.20606-.5264-.42081-.7839-.62791l-1.7736-1.36504c-.1038-.08375-.1659-.12666-.2305-.12419-.0524.00201-.1064.03388-.1855.09806-.8741.70898-1.8119 1.3891-2.704 2.07471-.45157-.34778-2.76222-2.17259-2.88627-2.17259-.11582 0-2.6842 2.01572-2.98614 2.24769-.06228.05385-.12759.14796-.12759.24606z"/><path d="m6.11203 10.3575c-.06919 0-2.10322-1.59833-2.50846-1.92511-.10921-.08806-.27595-.17412-.30657-.34906-.17845.05537-.30606.21864-.2965.39181.00458.08279.04051.16787.11725.24449.84875.66102 1.71087 1.38347 2.57265 2.01007.23463.1706.31749.2727.42053.2703.17641-.0042 5.60667-4.25134 5.67087-4.30062.0398-.0331.0731-.04926.1052-.05161.1215-.00891 2.315 1.7781 2.5928 1.99315.0871.07018.1918.11739.2195.27575.1555-.00461.304-.18253.3006-.37186-.0015-.08729-.0353-.17703-.1156-.2533-.1364-.12966-.6824-.56209-.8791-.72069l-1.666-1.28405c-.2616-.18837-.3431-.30404-.4636-.28466-.054.00869-.1159.04457-.2054.11328-.5234.40183-5.48696 4.24211-5.55817 4.24211z"/><path d="m6.12796 11.3574c-.0974 0-.29999-.1821-.3921-.2543-.76501-.5993-1.5358-1.22606-2.30386-1.81862-.091-.08029-.08412-.07694-.13343-.20115-.1313.01457-.29857.17915-.29857.36 0 .24556.30551.44699.50036.60307.78149.6263 1.58737 1.2247 2.37788 1.8333.09884.0798.16915.118.23616.1202.13463.0044.25599-.1362.5688-.3762 1.03337-.7926 5.1477-3.97995 5.2173-3.97995.0719 0 1.0118.75539 1.0745.80384.5056.39853 1.1355.87022 1.6124 1.26107.0672.05516.0913.11484.1282.20801.1694-.10832.2844-.12949.2844-.41685 0-.2075-.4265-.48098-.6176-.63518l-2.3597-1.81959c-.0488-.03743-.0956-.04946-.1426-.04367-.1132.01393-.2279.13105-.377.24544l-5.18543 3.98448c-.04922.0357-.13598.1261-.18971.1261z"/></g></svg>

<!-- by TradingView --><svg width="18" height="18" viewBox="0 0 18 18" fill="none" xmlns="http://www.w3.org/2000/svg">
<rect width="18" height="18" fill="#F0F3FA"/>
<path fill-rule="evenodd" clip-rule="evenodd" d="M9.43865 10.4901C9.49354 10.4731 9.64938 10.343 9.70604 10.2978C9.79896 10.2237 9.88429 10.1604 9.97891 10.094C10.1475 10.2437 11.7732 11.5124 11.886 11.5163C12.0024 11.5204 12.5828 11.045 12.7184 10.9369L13.5289 10.3145C13.581 10.2759 13.6136 10.2514 13.6657 10.213C13.8653 10.0655 13.7434 10.0533 14.0687 10.2891L14.3437 10.509C14.2948 10.5263 14.0996 10.6861 14.0424 10.7317C13.8956 10.8442 11.9304 12.3577 11.9125 12.3577C11.8144 12.3577 9.74259 10.7244 9.43865 10.4901ZM10.377 9.77325C10.4417 9.75327 10.5091 9.68268 10.5626 9.64215L10.8324 9.43322C10.9327 9.35403 10.9669 9.44778 11.1212 9.55928C11.2678 9.67147 11.79 10.1082 11.9036 10.0983C11.9957 10.0903 12.0978 9.98045 12.4008 9.76086C13.0297 9.30503 12.7914 9.32767 13.1495 9.5846L13.4054 9.81099C13.3494 9.8283 12.7262 10.3235 12.6518 10.3769L12.2728 10.6664C12.0394 10.835 11.9721 10.9278 11.8952 10.9271C11.788 10.9263 10.3909 9.80078 10.377 9.77325ZM11.2585 9.09413C11.3601 9.06274 11.8074 8.65629 11.886 8.6474C11.9459 8.64062 12.1433 8.81336 12.2029 8.85979L12.5239 9.09413C12.4729 9.19512 11.9327 9.56737 11.8868 9.56448C11.8226 9.56045 11.758 9.48765 11.5757 9.35243C11.5106 9.30414 11.2924 9.15552 11.2585 9.09413ZM6.12594 12.3577C6.05641 12.3577 5.82804 12.1635 5.7591 12.1087C5.20354 11.6666 4.5459 11.1776 3.9656 10.7344L3.42702 10.2876C3.34803 10.2201 3.33914 10.1899 3.29663 10.0833C3.10451 10.1427 2.93643 10.3457 3.02367 10.5773C3.08463 10.7392 3.71737 11.2056 3.8735 11.3282C4.05774 11.47 5.98775 12.9991 6.11172 12.9991C6.21938 12.9991 7.05351 12.3251 7.20722 12.2077L9.00068 10.8416C9.02419 10.8384 9.13583 10.9298 9.17124 10.9581C9.94674 11.5531 10.7226 12.1706 11.5046 12.748C11.7234 12.9095 11.8061 12.9952 11.887 12.9998C11.9726 13.0047 12.0562 12.9188 12.2971 12.7359C13.0272 12.1817 13.7569 11.6436 14.4779 11.0643L14.8746 10.7606C14.9559 10.699 14.9999 10.6029 15 10.5043C15.0001 10.4094 14.9596 10.3122 14.8728 10.2409C14.8061 10.1861 14.7448 10.1398 14.6751 10.0881C14.1497 9.69857 13.6286 9.28636 13.1076 8.88555C12.9764 8.78054 11.9884 8 11.8983 8C11.8014 8 11.2942 8.40625 11.1616 8.51278L8.29519 10.7084C8.05082 10.9002 7.81459 11.0675 7.5734 11.2599L6.12594 12.3577Z" fill="#3C4D5F"/>
<path fill-rule="evenodd" clip-rule="evenodd" d="M5.48814 8.87317C5.54697 8.85494 5.7293 8.70439 5.79278 8.65449C5.97708 8.50962 6.04916 8.44026 6.12243 8.44427C6.26228 8.45191 6.57396 8.82191 6.73933 8.87317C6.72048 8.967 6.1617 9.35863 6.10677 9.35539C6.03236 9.35099 5.6355 9.01803 5.51661 8.92979C5.47172 8.88182 5.51065 8.93006 5.48814 8.87317ZM5.1327 8.60868C5.04284 8.60868 4.7124 8.26798 4.59242 8.23082C4.59376 8.22841 5.97786 7.11625 6.09318 7.08606C6.10049 7.08415 6.10745 7.08329 6.11418 7.08333C6.12465 7.08341 6.13455 7.08568 6.14431 7.08962C6.16035 7.0961 6.17601 7.10712 6.19313 7.12032L7.428 8.05256C7.4756 8.09085 7.57453 8.17662 7.62086 8.19305C7.60789 8.25753 7.60756 8.24179 7.51151 8.31225L7.109 8.60868C7.05354 8.60868 6.24244 7.91667 6.14217 7.91667C5.97923 7.91667 5.77942 8.11236 5.60116 8.24874L5.1327 8.60868ZM4.19431 7.90966L3.66824 7.51292C3.71966 7.4197 6.10318 5.64261 6.11373 5.64261C6.12374 5.64261 8.50292 7.39787 8.55924 7.5C8.38029 7.62581 8.21109 7.79159 8.03318 7.91667C7.48841 7.4898 6.94163 7.06873 6.3937 6.64975C6.25151 6.54462 6.18485 6.48878 6.11418 6.48937C6.0485 6.48992 5.97935 6.53921 5.84289 6.64296L4.19431 7.90966ZM3 7.49403C3 7.70791 3.20524 7.81425 3.31728 7.90371C3.6208 8.14604 5.9407 9.98225 6.09745 9.9998C6.39986 10.0337 11.6106 5.64261 11.9005 5.64261C11.9474 5.64261 12.3483 5.9729 12.4408 6.03935C12.7661 6.2731 13.1706 6.61202 13.5027 6.85755L14.5745 7.70748C14.6296 7.75052 14.6949 7.81233 14.7014 7.91667C14.8543 7.89978 15 7.76022 15 7.50106C15 7.32438 14.7757 7.19564 14.6775 7.11724C14.4194 6.91118 14.1511 6.69643 13.8936 6.48933L12.12 5.12429C12.0162 5.04054 11.9541 4.99763 11.8895 5.0001C11.8371 5.00211 11.7831 5.03398 11.704 5.09816C10.8299 5.80714 9.8921 6.48726 9 7.17287C8.54843 6.82509 6.23778 5.00028 6.11373 5.00028C5.99791 5.00028 3.42953 7.016 3.12759 7.24797C3.06531 7.30182 3 7.39593 3 7.49403Z" fill="#3C4D5F"/>
<path fill-rule="evenodd" clip-rule="evenodd" d="M6.11203 10.3575C6.04284 10.3575 4.00881 8.75917 3.60357 8.43239C3.49436 8.34433 3.32762 8.25827 3.297 8.08333C3.11855 8.1387 2.99094 8.30197 3.0005 8.47514C3.00508 8.55793 3.04101 8.64301 3.11775 8.71963C3.9665 9.38065 4.82862 10.1031 5.6904 10.7297C5.92503 10.9003 6.00789 11.0024 6.11093 11C6.28734 10.9958 11.7176 6.74866 11.7818 6.69938C11.8216 6.66628 11.8549 6.65012 11.887 6.64777C12.0085 6.63886 14.202 8.42587 14.4798 8.64092C14.5669 8.7111 14.6716 8.75831 14.6993 8.91667C14.8548 8.91206 15.0033 8.73414 14.9999 8.54481C14.9984 8.45752 14.9646 8.36778 14.8843 8.29151C14.7479 8.16185 14.2019 7.72942 14.0052 7.57082L12.3392 6.28677C12.0776 6.0984 11.9961 5.98273 11.8756 6.00211C11.8216 6.0108 11.7597 6.04668 11.6702 6.11539C11.1468 6.51722 6.18324 10.3575 6.11203 10.3575Z" fill="#3C4D5F"/>
<path fill-rule="evenodd" clip-rule="evenodd" d="M6.12796 11.3574C6.03056 11.3574 5.82797 11.1753 5.73586 11.1031C4.97085 10.5038 4.20006 9.87704 3.432 9.28448C3.341 9.20419 3.34788 9.20754 3.29857 9.08333C3.16727 9.0979 3 9.26248 3 9.44333C3 9.68889 3.30551 9.89032 3.50036 10.0464C4.28185 10.6727 5.08773 11.2711 5.87824 11.8797C5.97708 11.9595 6.04739 11.9977 6.1144 11.9999C6.24903 12.0043 6.37039 11.8637 6.6832 11.6237C7.71657 10.8311 11.8309 7.64375 11.9005 7.64375C11.9724 7.64375 12.9123 8.39914 12.975 8.44759C13.4806 8.84612 14.1105 9.31781 14.5874 9.70866C14.6546 9.76382 14.6787 9.8235 14.7156 9.91667C14.885 9.80835 15 9.78718 15 9.49982C15 9.29232 14.5735 9.01884 14.3824 8.86464L12.0227 7.04505C11.9739 7.00762 11.9271 6.99559 11.8801 7.00138C11.7669 7.01531 11.6522 7.13243 11.5031 7.24682L6.31767 11.2313C6.26845 11.267 6.18169 11.3574 6.12796 11.3574Z" fill="#3C4D5F"/>
</svg>
